;FLAVOR:Marlin
;TIME:3451
;Filament used: 2.15006m
;Layer height: 0.2
;MINX:91.016
;MINY:92.832
;MINZ:0.2
;MAXX:130.613
;MAXY:130.813
;MAXZ:15
;TARGET_MACHINE.NAME:Creality Ender-3 Pro
;Generated with Cura_SteamEngine 5.5.0
M82 ;absolute extrusion mode
; Ender 3 Custom Start G-code
G92 E0 ; Reset Extruder
G28 ; Home all axes
G1 Z5.0 F3000 ; Move Z Axis up a bit during heating to not damage bed
M104 S175 ; Start heating up the nozzle most of the way
M190 S60 ; Start heating the bed, wait until target temperature reached
M109 S200 ; Finish heating the nozzle
G1 Z2.0 F3000 ; Move Z Axis up little to prevent scratching of Heat Bed
G1 X0.1 Y20 Z0.3 F5000.0 ; Move to start position
G1 X0.1 Y200.0 Z0.3 F1500.0 E15 ; Draw the first line
G1 X0.4 Y200.0 Z0.3 F5000.0 ; Move to side a little
G1 X0.4 Y20 Z0.3 F1500.0 E30 ; Draw the second line
G92 E0 ; Reset Extruder
G1 Z2.0 F3000 ; Move Z Axis up little to prevent scratching of Heat Bed
G1 X5 Y20 Z0.3 F5000.0 ; Move over to prevent blob squish
G92 E0
G92 E0
G1 F1500 E-6.5
;LAYER_COUNT:75
;LAYER:0
M107
;MESH:Molette.3mf
G0 F6000 X123.863 Y98.051 Z0.2
;TYPE:WALL-INNER
G1 F1500 E0
G1 F1200 X123.706 Y97.871 E0.00794
G1 X122.702 Y97.003 E0.05209
G1 X121.637 Y96.208 E0.09629
G1 X120.533 Y95.499 E0.13993
G1 X120.305 Y95.396 E0.14825
G1 X119.885 Y95.353 E0.16229
G1 X119.604 Y95.414 E0.17186
G1 X117.914 Y95.875 E0.23012
G1 X116.159 Y96.153 E0.28922
G1 F1263.2 X115.249 Y96.175 E0.31798
G1 X114.441 Y96.238 E0.34359
G1 F1200 X112.619 Y96.117 E0.40432
G1 X110.98 Y95.83 E0.45966
G1 F1140.1 X109.959 Y95.561 E0.49663
G1 F1083.5 X109.546 Y95.441 E0.51247
G1 F1124.1 X109.276 Y95.345 E0.52264
G1 F1185.2 X107.605 Y94.649 E0.5836
G1 F1200 X106.096 Y93.816 E0.64093
G1 X105.838 Y93.691 E0.65047
G1 X105.416 Y93.635 E0.66462
G1 X105.172 Y93.683 E0.67289
G1 X103.946 Y94.11 E0.71607
G1 X102.706 Y94.642 E0.76095
G1 X101.532 Y95.249 E0.80491
G1 X101.336 Y95.389 E0.81292
G1 X101.086 Y95.734 E0.82709
G1 X101.002 Y95.998 E0.83631
G1 X100.554 Y97.705 E0.895
G1 X99.944 Y99.303 E0.95189
G1 F1209.1 X99.101 Y100.929 E1.01236
G1 X100.474 Y99.613 E1.07514
G1 F1200 X102.026 Y98.45 E1.13964
G1 X103.685 Y97.499 E1.20324
G1 X105.483 Y96.734 E1.26823
G1 X107.319 Y96.209 E1.33174
G1 F1170.7 X109.425 Y95.865 E1.40449
G1 F1140.1 X109.843 Y95.987 E1.41974
G1 F1170.7 X110.297 Y96.536 E1.44402
G1 F1200 X110.342 Y96.999 E1.4595
G1 X110.17 Y98.611 E1.51342
G1 X110.009 Y99.024 E1.52816
G1 X109.741 Y99.255 E1.53993
G1 X109.414 Y99.397 E1.55178
G1 X107.76 Y99.704 E1.60774
G1 X106.24 Y100.191 E1.66082
G1 X104.83 Y100.851 E1.7126
G1 X103.475 Y101.707 E1.76591
G1 X102.255 Y102.715 E1.81855
G1 X101.181 Y103.864 E1.87086
G1 X100.243 Y105.156 E1.92396
G1 X99.493 Y106.528 E1.97597
G1 X98.91 Y108.018 E2.02918
G1 X98.527 Y109.544 E2.08151
G1 X98.337 Y111.121 E2.13434
G1 X98.347 Y112.68 E2.1862
G1 X98.583 Y114.454 E2.24572
G1 X98.538 Y114.723 E2.25479
G1 X98.44 Y114.954 E2.26314
G1 X98.142 Y115.295 E2.2782
G1 X96.581 Y115.994 E2.33508
G1 X95.912 Y116.046 E2.3574
G1 X95.806 Y116.011 E2.36112
G1 F1246.8 X95.448 Y115.749 E2.37532
G1 F1300.8 X95.266 Y115.464 E2.38569
G1 F1263.2 X95.19 Y115.238 E2.39323
G1 F1221.4 X94.888 Y113.391 E2.45438
G1 F1209.1 X94.82 Y111.434 E2.51903
G1 F1200 X94.974 Y109.555 E2.58173
G1 X95.366 Y107.648 E2.64648
G1 X95.986 Y105.809 E2.71103
G1 X96.793 Y104.117 E2.77338
G1 F1182.3 X97.024 Y103.728 E2.78865
G1 X95.685 Y104.989 E2.85075
G1 F1200 X94.367 Y105.995 E2.9059
G1 X92.845 Y106.917 E2.96508
G1 X92.625 Y107.066 E2.97392
G1 X92.365 Y107.405 E2.98813
G1 X92.284 Y107.643 E2.99649
G1 X92.041 Y108.913 E3.0395
G1 X91.879 Y110.271 E3.08498
G1 X91.818 Y111.571 E3.12827
G1 X91.907 Y112.015 E3.14333
G1 X92.019 Y112.205 E3.15067
G1 X92.204 Y112.408 E3.1598
G1 X93.381 Y113.567 E3.21474
G1 X94.549 Y114.988 E3.27592
G1 F1256.5 X95.118 Y115.914 E3.31044
G1 X95.47 Y116.421 E3.33005
G1 F1200 X96.271 Y118.019 E3.3895
G1 X96.883 Y119.674 E3.44819
G1 F1118.9 X97.138 Y120.587 E3.482
G1 F1071.4 X97.205 Y120.904 E3.49407
G1 F1086 X97.26 Y121.111 E3.50195
G1 F1126.8 X97.32 Y121.438 E3.51372
G1 F1191.1 X97.544 Y123.154 E3.57171
G1 F1200 X97.58 Y124.895 E3.62963
G1 X97.602 Y125.205 E3.63997
G1 X97.765 Y125.594 E3.654
G1 X97.923 Y125.774 E3.66196
G1 X98.922 Y126.638 E3.70589
G1 X99.993 Y127.438 E3.75035
G1 X101.096 Y128.146 E3.79395
G1 X101.323 Y128.25 E3.80225
G1 X101.744 Y128.293 E3.81633
G1 X102.025 Y128.231 E3.8259
G1 X103.717 Y127.768 E3.88424
G1 X105.404 Y127.498 E3.94107
G1 F1209.1 X107.249 Y127.417 E4.00203
G1 X105.411 Y126.885 E4.06519
G1 F1200 X103.633 Y126.124 E4.12952
G1 X101.97 Y125.158 E4.19349
G1 X100.411 Y123.981 E4.25846
G1 X99.039 Y122.657 E4.32187
G1 F1167.9 X97.697 Y121.019 E4.39424
G1 F1116.3 X97.629 Y120.801 E4.4024
G1 F1071.4 X97.591 Y120.537 E4.41234
G1 F1118.9 X97.835 Y119.914 E4.43621
G1 F1200 X98.211 Y119.645 E4.45158
G1 X99.758 Y118.954 E4.50794
G1 X100.052 Y118.932 E4.51774
G1 X100.363 Y118.991 E4.52827
G1 X100.542 Y119.077 E4.53488
G1 X100.783 Y119.282 E4.5454
G1 X101.85 Y120.531 E4.60004
G1 X103.033 Y121.602 E4.65311
G1 X104.317 Y122.498 E4.70519
G1 X105.724 Y123.237 E4.75805
G1 X107.205 Y123.787 E4.81059
G1 X108.757 Y124.15 E4.86361
G1 X110.319 Y124.311 E4.91583
G1 X111.895 Y124.272 E4.96827
G1 X113.448 Y124.039 E5.0205
G1 X114.976 Y123.606 E5.07332
G1 X116.445 Y122.979 E5.12644
G1 X117.787 Y122.195 E5.17814
G1 X119.183 Y121.119 E5.23676
G1 X119.572 Y120.983 E5.25047
G1 X119.889 Y120.988 E5.26101
G1 X120.169 Y121.069 E5.27071
G1 X121.545 Y122.062 E5.32715
G1 X121.924 Y122.609 E5.34928
G1 X121.948 Y122.72 E5.35306
G1 F1256.5 X121.9 Y123.165 E5.36727
G1 F1315.1 X121.745 Y123.467 E5.37758
G1 F1273.2 X121.586 Y123.647 E5.3851
G1 F1215.2 X120.137 Y124.829 E5.44652
G1 F1200 X118.497 Y125.86 E5.51095
G1 X116.768 Y126.674 E5.57451
G1 X114.925 Y127.289 E5.63913
G1 X113.025 Y127.673 E5.70361
G1 X111.157 Y127.817 E5.76592
G1 F1179.4 X110.65 Y127.809 E5.78308
G1 X112.457 Y128.342 E5.84684
G1 F1200 X113.995 Y128.983 E5.90226
G1 X115.532 Y129.828 E5.96059
G1 X115.791 Y129.954 E5.97017
G1 X116.215 Y130.011 E5.9844
G1 X116.456 Y129.963 E5.99258
G1 X117.687 Y129.535 E6.03592
G1 X118.926 Y129.002 E6.08078
G1 X120.098 Y128.395 E6.12468
G1 X120.293 Y128.256 E6.13265
G1 X120.542 Y127.913 E6.14674
G1 X120.629 Y127.639 E6.15631
G1 X121.076 Y125.94 E6.21474
G1 X121.708 Y124.295 E6.27335
G1 F1269.8 X122.149 Y123.483 E6.30239
G1 X122.493 Y122.76 E6.32756
G1 F1200 X123.517 Y121.234 E6.38868
G1 X124.58 Y119.962 E6.44382
G1 F1137.4 X125.323 Y119.213 E6.48084
G1 F1081.1 X125.634 Y118.917 E6.49669
G1 F1132.1 X125.889 Y118.702 E6.50845
G1 F1194 X127.288 Y117.632 E6.56732
G1 F1200 X128.754 Y116.747 E6.62428
G1 X129.006 Y116.578 E6.63437
G1 X129.265 Y116.238 E6.64858
G1 X129.346 Y116.003 E6.65685
G1 X129.589 Y114.724 E6.70015
G1 X129.75 Y113.374 E6.74537
G1 X129.811 Y112.075 E6.78862
G1 X129.788 Y111.835 E6.79664
G1 X129.61 Y111.44 E6.81105
G1 X129.425 Y111.239 E6.82014
G1 X128.174 Y109.998 E6.87875
G1 X127.091 Y108.667 E6.93582
G1 F1209.1 X126.108 Y107.134 E6.99593
G1 X126.559 Y108.968 E7.05828
G1 F1200 X126.791 Y110.9 E7.123
G1 X126.785 Y112.819 E7.18683
G1 X126.548 Y114.75 E7.25153
G1 X126.085 Y116.607 E7.31519
G1 F1167.9 X125.331 Y118.597 E7.38791
G1 F1132.1 X125.011 Y118.902 E7.4035
G1 F1162.2 X124.313 Y119.02 E7.42781
G1 F1200 X123.889 Y118.826 E7.44332
G1 X122.505 Y117.822 E7.50019
G1 X122.282 Y117.425 E7.51533
G1 X122.234 Y117.178 E7.5237
G1 X122.283 Y116.8 E7.53638
G1 X122.842 Y115.216 E7.59225
G1 X123.173 Y113.688 E7.64425
G1 X123.31 Y112.124 E7.69647
G1 X123.243 Y110.525 E7.74969
G1 X122.983 Y108.973 E7.80203
G1 X122.527 Y107.462 E7.85453
G1 X121.879 Y106.016 E7.90723
G1 X121.058 Y104.663 E7.95987
G1 X120.069 Y103.424 E8.0126
G1 X118.941 Y102.329 E8.06488
G1 X117.66 Y101.366 E8.11819
G1 X116.308 Y100.597 E8.16992
G1 X114.68 Y99.927 E8.22847
G1 X114.368 Y99.66 E8.24213
G1 X114.214 Y99.383 E8.25267
G1 X114.155 Y99.024 E8.26477
G1 X114.319 Y97.409 E8.31876
G1 X114.601 Y96.81 E8.34079
G1 X114.683 Y96.735 E8.34448
G1 F1250 X115.098 Y96.552 E8.35896
G1 F1300.8 X115.436 Y96.535 E8.36935
G1 F1263.2 X115.67 Y96.582 E8.37689
G1 F1215.2 X117.416 Y97.244 E8.43822
G1 F1200 X119.151 Y98.165 E8.50355
G1 X120.699 Y99.238 E8.5662
G1 X122.109 Y100.49 E8.62891
G1 X123.44 Y101.99 E8.69561
G1 X124.557 Y103.63 E8.76161
G1 F1182.3 X124.742 Y103.974 E8.7748
G1 X124.319 Y102.24 E8.83505
G1 F1200 X124.087 Y100.492 E8.8937
G1 X124.051 Y98.786 E8.95045
G1 X124.027 Y98.437 E8.96209
G1 X123.863 Y98.051 E8.97604
G0 F6000 X121.75 Y96.045
G0 X120.345 Y95.201
G0 X119.885 Y95.154
G0 X110.092 Y95.402
G0 X109.907 Y95.736
G0 X109.602 Y95.271
G0 X110.24 Y96.989
G0 X109.944 Y96.958
G1 F1200 X109.777 Y98.536 E9.02882
G1 X109.698 Y98.739 E9.03606
G1 X109.52 Y98.922 E9.04455
G1 X109.38 Y98.991 E9.04974
G1 X107.662 Y99.316 E9.1079
G1 X106.094 Y99.818 E9.16266
G1 X104.638 Y100.499 E9.21612
G1 X103.24 Y101.382 E9.27111
G1 X101.98 Y102.423 E9.32547
G1 X100.872 Y103.609 E9.37946
G1 X99.905 Y104.942 E9.43423
G1 X99.13 Y106.359 E9.48795
G1 X98.528 Y107.896 E9.54285
G1 X98.133 Y109.471 E9.59686
G1 X97.937 Y111.099 E9.6514
G1 X97.947 Y112.708 E9.70491
G1 X98.172 Y114.401 E9.76172
G1 X98.153 Y114.616 E9.7689
G1 X98.094 Y114.754 E9.77389
G1 X97.914 Y114.959 E9.78296
G1 X96.418 Y115.628 E9.83747
G1 X95.986 Y115.662 E9.85188
G1 X95.731 Y115.488 E9.86215
G1 X95.596 Y115.278 E9.87045
G1 X95.286 Y113.314 E9.93658
G1 X95.221 Y111.431 E9.99925
G1 X95.369 Y109.624 E10.05955
G1 X95.747 Y107.783 E10.12206
G1 X96.373 Y105.927 E10.18721
G1 X97.154 Y104.289 E10.24756
G1 X97.501 Y103.735 E10.26931
G1 F993.8 X97.645 Y103.354 E10.28566
G1 F890.5 X98.112 Y102.671 E10.32275
G1 F888.9 X98.986 Y101.557 E10.38632
G1 F993.8 X99.303 Y101.302 E10.40266
G1 F1200 X99.384 Y101.207 E10.40681
G1 X100.735 Y99.916 E10.46897
G1 X102.28 Y98.765 E10.53305
G1 X103.869 Y97.854 E10.59397
G1 X105.622 Y97.112 E10.65728
G1 X107.413 Y96.598 E10.71925
G1 X109.276 Y96.3 E10.782
G1 X109.515 Y96.316 E10.78997
G1 F1203 X109.66 Y96.382 E10.79526
G1 X109.897 Y96.655 E10.80725
G1 F1200 X109.944 Y96.958 E10.81745
G0 F6000 X110.24 Y96.989
G0 X109.892 Y95.813
G0 X109.602 Y95.271
G0 X109.907 Y95.736
G0 X115.495 Y96.352
G0 X122.041 Y100.568
G0 X121.843 Y100.789
G1 F1200 X123.097 Y102.206 E10.88038
G1 X124.202 Y103.815 E10.9453
G1 X124.48 Y104.351 E10.96539
G1 F993.8 X124.738 Y104.666 E10.98174
G1 F888.9 X125.093 Y105.403 E11.01847
G1 F890.5 X125.621 Y106.713 E11.08177
G1 F993.8 X125.683 Y107.116 E11.09815
G1 F1203 X125.723 Y107.229 E11.10212
G1 X126.166 Y109.044 E11.16411
G1 F1200 X126.391 Y110.96 E11.22827
G1 X126.385 Y112.8 E11.28947
G1 X126.155 Y114.675 E11.3523
G1 X125.701 Y116.494 E11.41466
G1 X125.03 Y118.248 E11.47712
G1 X124.893 Y118.452 E11.48529
G1 F1203 X124.769 Y118.543 E11.49039
G1 X124.409 Y118.613 E11.50256
G1 F1200 X124.124 Y118.502 E11.51273
G1 X122.796 Y117.539 E11.5673
G1 X122.662 Y117.301 E11.57638
G1 X122.634 Y117.153 E11.58139
G1 X122.658 Y116.939 E11.58855
G1 X123.228 Y115.326 E11.64545
G1 X123.569 Y113.748 E11.69915
G1 X123.71 Y112.133 E11.75307
G1 X123.642 Y110.484 E11.80796
G1 X123.373 Y108.882 E11.86199
G1 X122.902 Y107.322 E11.91619
G1 X122.234 Y105.83 E11.97056
G1 X121.387 Y104.434 E12.02487
G1 X120.366 Y103.155 E12.0793
G1 X119.202 Y102.024 E12.13328
G1 X117.88 Y101.031 E12.18827
G1 X116.484 Y100.237 E12.24169
G1 X114.887 Y99.579 E12.29914
G1 X114.765 Y99.498 E12.30401
G1 X114.59 Y99.246 E12.31421
G1 X114.555 Y99.031 E12.32146
G1 X114.717 Y97.45 E12.37432
G1 X114.899 Y97.063 E12.38854
G1 X115.182 Y96.927 E12.39898
G1 X115.432 Y96.915 E12.40731
G1 X117.284 Y97.627 E12.4733
G1 X118.935 Y98.502 E12.53545
G1 X120.459 Y99.559 E12.59714
G1 X121.843 Y100.789 E12.65872
G0 F6000 X122.041 Y100.568
G0 X124.273 Y102.866
G0 X123.95 Y97.995
G0 X124.193 Y97.82
G1 F1200 X123.989 Y97.587 E12.66902
G1 X122.953 Y96.691 E12.71458
G1 X121.865 Y95.879 E12.75973
G1 X120.725 Y95.147 E12.80479
G1 X120.431 Y95.014 E12.81552
G1 X120.143 Y94.952 E12.82532
G1 X119.841 Y94.953 E12.83537
G1 X119.507 Y95.026 E12.84674
G1 X117.85 Y95.48 E12.90388
G1 X116.14 Y95.753 E12.96148
G1 X114.405 Y95.834 E13.01924
G1 X112.688 Y95.723 E13.07647
G1 X110.984 Y95.421 E13.13403
G1 X109.327 Y94.934 E13.19147
G1 X107.771 Y94.285 E13.24755
G1 X106.28 Y93.46 E13.30422
G1 X105.974 Y93.313 E13.31551
G1 X105.684 Y93.242 E13.32544
G1 X105.382 Y93.234 E13.33549
G1 X105.067 Y93.296 E13.34617
G1 X103.801 Y93.737 E13.39076
G1 X102.535 Y94.28 E13.43658
G1 X101.322 Y94.907 E13.48199
G1 X101.069 Y95.088 E13.49234
G1 X100.868 Y95.309 E13.50227
G1 X100.717 Y95.572 E13.51236
G1 X100.618 Y95.887 E13.52334
G1 X100.18 Y97.563 E13.58096
G1 X99.578 Y99.142 E13.63716
G1 F1203 X98.805 Y100.651 E13.69341
G1 X98.683 Y100.842 E13.70093
G1 F993.8 X98.531 Y101.22 E13.7173
G1 F892.2 X97.891 Y102.133 E13.76717
G1 X97.19 Y103.021 E13.81779
G1 F993.8 X96.87 Y103.273 E13.83414
G1 F1200 X96.723 Y103.453 E13.84187
G1 X95.442 Y104.671 E13.90066
G1 X94.124 Y105.677 E13.95581
G1 X92.66 Y106.56 E14.01268
G1 X92.365 Y106.758 E14.02449
G1 X92.158 Y106.977 E14.03452
G1 X92.001 Y107.234 E14.04453
G1 X91.896 Y107.54 E14.05529
G1 X91.645 Y108.851 E14.09969
G1 X91.48 Y110.238 E14.14615
G1 X91.417 Y111.581 E14.19086
G1 X91.447 Y111.892 E14.20125
G1 X91.54 Y112.179 E14.21129
G1 X91.695 Y112.444 E14.2215
G1 X91.916 Y112.686 E14.2324
G1 X93.144 Y113.9 E14.28983
G1 X94.198 Y115.191 E14.34527
G1 X95.134 Y116.637 E14.40256
G1 X95.938 Y118.258 E14.46274
G1 X96.507 Y119.811 E14.51775
G1 X96.933 Y121.563 E14.57772
G1 X97.149 Y123.226 E14.63349
G1 X97.18 Y124.912 E14.68958
G1 X97.206 Y125.277 E14.70175
G1 X97.287 Y125.553 E14.71132
G1 X97.435 Y125.824 E14.72159
G1 X97.64 Y126.059 E14.73196
G1 X98.672 Y126.95 E14.77731
G1 X99.765 Y127.767 E14.82269
G1 X100.904 Y128.498 E14.86771
G1 X101.197 Y128.632 E14.87842
G1 X101.487 Y128.695 E14.8883
G1 X101.789 Y128.693 E14.89834
G1 X102.121 Y128.619 E14.90965
G1 X103.78 Y128.163 E14.96688
G1 X105.449 Y127.896 E15.0231
G1 X107.195 Y127.812 E15.08123
G1 X107.37 Y127.82 E15.08706
G1 F993.8 X107.773 Y127.761 E15.10342
G1 F892.2 X108.877 Y127.859 E15.153
G1 F893.9 X109.983 Y128.019 E15.2029
G1 F995.9 X110.36 Y128.169 E15.21916
G1 F1200 X110.58 Y128.209 E15.2266
G1 X112.303 Y128.712 E15.2863
G1 X113.901 Y129.382 E15.34393
G1 X115.347 Y130.183 E15.39891
G1 X115.655 Y130.333 E15.4103
G1 X115.945 Y130.403 E15.42023
G1 X116.248 Y130.412 E15.43031
G1 X116.561 Y130.35 E15.44092
G1 X117.832 Y129.908 E15.48568
G1 X119.097 Y129.364 E15.53148
G1 X120.307 Y128.738 E15.57679
G1 X120.56 Y128.557 E15.58714
G1 X120.763 Y128.334 E15.59717
G1 X120.911 Y128.074 E15.60712
G1 X121.014 Y127.75 E15.61842
G1 X121.45 Y126.082 E15.67577
G1 X122.064 Y124.478 E15.73289
G1 X122.828 Y122.988 E15.78858
G1 X123.824 Y121.491 E15.84839
G1 X124.933 Y120.17 E15.90575
G1 X126.193 Y118.972 E15.96358
G1 X127.56 Y117.931 E16.02073
G1 X128.969 Y117.085 E16.07539
G1 X129.266 Y116.885 E16.0873
G1 X129.47 Y116.67 E16.09716
G1 X129.629 Y116.41 E16.1073
G1 X129.734 Y116.106 E16.11799
G1 X129.985 Y114.785 E16.16272
G1 X130.149 Y113.407 E16.20887
G1 X130.212 Y112.065 E16.25356
G1 X130.182 Y111.753 E16.26398
G1 X130.089 Y111.467 E16.27398
G1 X129.934 Y111.201 E16.28422
G1 X129.682 Y110.929 E16.29656
G1 X128.484 Y109.746 E16.35255
G1 X127.431 Y108.454 E16.40799
G1 X126.491 Y107 E16.46558
G1 X126.392 Y106.808 E16.47276
G1 F993.8 X126.139 Y106.489 E16.48911
G1 F892.2 X125.67 Y105.482 E16.53881
G1 X125.255 Y104.439 E16.58902
G1 F993.8 X125.197 Y104.036 E16.60538
G1 F1203 X125.103 Y103.77 E16.61474
G1 X124.696 Y102.081 E16.67238
G1 F1200 X124.483 Y100.441 E16.72738
G1 X124.451 Y98.778 E16.7827
G1 X124.423 Y98.367 E16.7964
G1 X124.344 Y98.095 E16.80582
G1 X124.193 Y97.82 E16.81626
G1 F1500 E10.31626
G0 F6000 X123.95 Y97.995
G0 X124.418 Y103.195
G0 X120.368 Y99.693
G0 X118.836 Y98.63
G0 X117.187 Y97.759
G0 X114.95 Y96.919
G0 X114.693 Y99.316
G0 X121.519 Y104.34
G0 X122.814 Y109.113
G0 X123.441 Y110.505
G0 X123.508 Y112.128
G0 X122.765 Y117.765
G0 X125.438 Y118.756
G0 X120.714 Y128.012
G0 X120.147 Y128.188
G0 X119.011 Y129.182
G0 X117.758 Y129.72
G0 X116.265 Y129.857
G0 X115.745 Y130.148
G0 X111.486 Y127.918
