;FLAVOR:Marlin
;TIME:2435
;Filament used: 1.65239m
;Layer height: 0.2
;MINX:100.2
;MINY:100.2
;MINZ:0.2
;MAXX:119.8
;MAXY:119.8
;MAXZ:14
;TARGET_MACHINE.NAME:Creality Ender-3 Pro
;Generated with Cura_SteamEngine 5.6.0
M82 ;absolute extrusion mode
; Ender 3 Custom Start G-code
G92 E0 ; Reset Extruder
G28 ; Home all axes
G1 Z5.0 F3000 ; Move Z Axis up a bit during heating to not damage bed
M104 S175 ; Start heating up the nozzle most of the way
M190 S60 ; Start heating the bed, wait until target temperature reached
M109 S200 ; Finish heating the nozzle
G1 Z2.0 F3000 ; Move Z Axis up little to prevent scratching of Heat Bed
G1 X0.1 Y20 Z0.3 F5000.0 ; Move to start position
G1 X0.1 Y200.0 Z0.3 F1500.0 E15 ; Draw the first line
G1 X0.4 Y200.0 Z0.3 F5000.0 ; Move to side a little
G1 X0.4 Y20 Z0.3 F1500.0 E30 ; Draw the second line
G92 E0 ; Reset Extruder
G1 Z2.0 F3000 ; Move Z Axis up little to prevent scratching of Heat Bed
G1 X5 Y20 Z0.3 F5000.0 ; Move over to prevent blob squish
G92 E0
G92 E0
G1 F1500 E-6.5
;LAYER_COUNT:70
;LAYER:0
M107
;MESH:Attache cable hdmi.3mf
G0 F6000 X113.147 Y106.853 Z0.2
;TYPE:WALL-INNER
G1 F1500 E0
G1 F1200 X113.374 Y107.112 E0.01145
G1 X113.667 Y107.495 E0.02749
G1 X114.001 Y108.073 E0.0497
G1 X114.188 Y108.521 E0.06584
G1 X114.367 Y109.193 E0.08897
G1 X114.429 Y109.67 E0.10497
G1 X114.45 Y110 E0.11597
G1 X114.429 Y110.33 E0.12697
G1 X114.35 Y110.926 E0.14696
G1 X114.188 Y111.479 E0.16613
G1 X114.001 Y111.927 E0.18228
G1 X113.667 Y112.505 E0.20448
G1 X113.374 Y112.888 E0.22052
G1 X113.147 Y113.147 E0.23197
G1 X112.888 Y113.374 E0.24343
G1 X112.505 Y113.667 E0.25947
G1 X111.927 Y114.001 E0.28167
G1 X111.479 Y114.188 E0.29782
G1 X110.926 Y114.35 E0.31698
G1 X110.33 Y114.429 E0.33698
G1 X110 Y114.449 E0.34797
G1 X109.67 Y114.429 E0.35897
G1 X109.193 Y114.368 E0.37497
G1 X108.521 Y114.188 E0.3981
G1 X108.073 Y114.001 E0.41425
G1 X107.495 Y113.667 E0.43645
G1 X107.112 Y113.374 E0.45249
G1 X106.853 Y113.147 E0.46395
G1 X106.626 Y112.888 E0.4754
G1 X106.333 Y112.505 E0.49144
G1 X105.999 Y111.927 E0.51364
G1 X105.812 Y111.479 E0.52979
G1 X105.65 Y110.926 E0.54896
G1 X105.571 Y110.33 E0.56895
G1 X105.551 Y110 E0.57995
G1 X105.571 Y109.67 E0.59094
G1 X105.632 Y109.193 E0.60694
G1 X105.812 Y108.521 E0.63008
G1 X105.999 Y108.073 E0.64622
G1 X106.333 Y107.495 E0.66843
G1 X106.626 Y107.112 E0.68447
G1 X106.853 Y106.853 E0.69592
G1 X107.112 Y106.626 E0.70738
G1 X107.495 Y106.333 E0.72341
G1 X108.073 Y105.999 E0.74562
G1 X108.521 Y105.812 E0.76176
G1 X109.074 Y105.65 E0.78093
G1 X109.67 Y105.571 E0.80093
G1 X110 Y105.551 E0.81192
G1 X110.33 Y105.571 E0.82292
G1 X110.807 Y105.632 E0.83891
G1 X111.479 Y105.812 E0.86205
G1 X111.927 Y105.999 E0.8782
G1 X112.505 Y106.333 E0.9004
G1 X112.888 Y106.626 E0.91644
G1 X113.147 Y106.853 E0.92789
G0 F6000 X112.864 Y107.136
G1 F1200 X113.056 Y107.355 E0.93758
G1 X113.349 Y107.738 E0.95362
G1 X113.632 Y108.227 E0.97241
G1 X113.819 Y108.675 E0.98856
G1 X113.97 Y109.243 E1.00811
G1 X114.032 Y109.72 E1.0241
G1 X114.05 Y110 E1.03344
G1 X114.032 Y110.28 E1.04277
G1 X113.956 Y110.857 E1.06213
G1 X113.819 Y111.325 E1.07834
G1 X113.632 Y111.773 E1.09449
G1 X113.349 Y112.262 E1.11328
G1 X113.056 Y112.645 E1.12932
G1 X112.864 Y112.864 E1.13901
G1 X112.645 Y113.056 E1.1487
G1 X112.262 Y113.349 E1.16473
G1 X111.773 Y113.632 E1.18353
G1 X111.325 Y113.819 E1.19967
G1 X110.857 Y113.956 E1.21589
G1 X110.28 Y114.032 E1.23525
G1 X110 Y114.049 E1.24458
G1 X109.72 Y114.032 E1.25391
G1 X109.243 Y113.971 E1.2699
G1 X108.675 Y113.819 E1.28946
G1 X108.227 Y113.632 E1.30561
G1 X107.738 Y113.349 E1.3244
G1 X107.355 Y113.056 E1.34044
G1 X107.136 Y112.864 E1.35012
G1 X106.944 Y112.645 E1.35981
G1 X106.651 Y112.262 E1.37585
G1 X106.368 Y111.773 E1.39464
G1 X106.181 Y111.325 E1.41079
G1 X106.044 Y110.857 E1.42701
G1 X105.968 Y110.28 E1.44636
G1 X105.951 Y110 E1.45569
G1 X105.968 Y109.72 E1.46502
G1 X106.029 Y109.243 E1.48102
G1 X106.181 Y108.675 E1.50057
G1 X106.368 Y108.227 E1.51672
G1 X106.651 Y107.738 E1.53551
G1 X106.944 Y107.355 E1.55155
G1 X107.136 Y107.136 E1.56124
G1 X107.355 Y106.944 E1.57092
G1 X107.738 Y106.651 E1.58696
G1 X108.227 Y106.368 E1.60575
G1 X108.675 Y106.181 E1.6219
G1 X109.143 Y106.044 E1.63812
G1 X109.72 Y105.968 E1.65748
G1 X110 Y105.951 E1.66681
G1 X110.28 Y105.968 E1.67614
G1 X110.757 Y106.029 E1.69213
G1 X111.325 Y106.181 E1.71169
G1 X111.773 Y106.368 E1.72783
G1 X112.262 Y106.651 E1.74663
G1 X112.645 Y106.944 E1.76266
G1 X112.864 Y107.136 E1.77235
G0 F6000 X112.528 Y107.358
G1 F1200 X112.738 Y107.598 E1.78296
G1 X113.031 Y107.981 E1.799
G1 X113.263 Y108.381 E1.81438
G1 X113.449 Y108.829 E1.83051
G1 X113.574 Y109.294 E1.84653
G1 X113.655 Y109.926 E1.86772
G1 X113.635 Y110.229 E1.87782
G1 X113.562 Y110.788 E1.89657
G1 X113.449 Y111.171 E1.90985
G1 X113.263 Y111.619 E1.92598
G1 X113.031 Y112.019 E1.94136
G1 X112.642 Y112.528 E1.96267
G1 X112.402 Y112.738 E1.97328
G1 X112.019 Y113.031 E1.98932
G1 X111.619 Y113.263 E2.0047
G1 X111.171 Y113.45 E2.02084
G1 X110.788 Y113.562 E2.03411
G1 X110.229 Y113.635 E2.05286
G1 X109.919 Y113.654 E2.06319
G1 X109.294 Y113.574 E2.08415
G1 X108.829 Y113.45 E2.10016
G1 X108.381 Y113.263 E2.1163
G1 X107.981 Y113.031 E2.13168
G1 X107.472 Y112.642 E2.15299
G1 X107.262 Y112.402 E2.1636
G1 X106.969 Y112.019 E2.17964
G1 X106.737 Y111.619 E2.19502
G1 X106.55 Y111.171 E2.21116
G1 X106.438 Y110.788 E2.22444
G1 X106.365 Y110.229 E2.24319
G1 X106.346 Y109.919 E2.25352
G1 X106.426 Y109.294 E2.27447
G1 X106.55 Y108.829 E2.29048
G1 X106.737 Y108.381 E2.30663
G1 X106.969 Y107.981 E2.32201
G1 X107.358 Y107.472 E2.34331
G1 X107.598 Y107.262 E2.35392
G1 X107.981 Y106.969 E2.36996
G1 X108.381 Y106.737 E2.38534
G1 X108.829 Y106.55 E2.40149
G1 X109.212 Y106.438 E2.41476
G1 X109.771 Y106.365 E2.43351
G1 X110.081 Y106.346 E2.44384
G1 X110.706 Y106.426 E2.46479
G1 X111.171 Y106.55 E2.4808
G1 X111.619 Y106.737 E2.49695
G1 X112.019 Y106.969 E2.51233
G1 X112.528 Y107.358 E2.53363
G0 F6000 X112.252 Y107.65
G1 F1200 X112.421 Y107.841 E2.54212
G1 X112.713 Y108.224 E2.55814
G1 X112.893 Y108.535 E2.57009
G1 X113.08 Y108.983 E2.58623
G1 X113.177 Y109.345 E2.5987
G1 X113.261 Y110 E2.62066
G1 X113.168 Y110.719 E2.64478
G1 X113.08 Y111.017 E2.65511
G1 X112.893 Y111.465 E2.67126
G1 X112.713 Y111.776 E2.68321
G1 X112.35 Y112.252 E2.70312
G1 X112.159 Y112.421 E2.7116
G1 X111.776 Y112.713 E2.72762
G1 X111.465 Y112.893 E2.73957
G1 X111.017 Y113.081 E2.75573
G1 X110.719 Y113.168 E2.76606
G1 X110 Y113.261 E2.79017
G1 X109.345 Y113.177 E2.81213
G1 X108.983 Y113.081 E2.82459
G1 X108.535 Y112.893 E2.84075
G1 X108.224 Y112.713 E2.8527
G1 X107.748 Y112.35 E2.87261
G1 X107.579 Y112.159 E2.88109
G1 X107.287 Y111.776 E2.89711
G1 X107.107 Y111.465 E2.90906
G1 X106.919 Y111.017 E2.92522
G1 X106.832 Y110.719 E2.93555
G1 X106.739 Y110 E2.95966
G1 X106.823 Y109.345 E2.98162
G1 X106.919 Y108.983 E2.99408
G1 X107.107 Y108.535 E3.01024
G1 X107.287 Y108.224 E3.02219
G1 X107.65 Y107.748 E3.0421
G1 X107.841 Y107.579 E3.05058
G1 X108.224 Y107.287 E3.0666
G1 X108.535 Y107.107 E3.07855
G1 X108.983 Y106.919 E3.09471
G1 X109.281 Y106.832 E3.10504
G1 X110 Y106.739 E3.12915
G1 X110.655 Y106.823 E3.15112
G1 X111.017 Y106.919 E3.16357
G1 X111.465 Y107.107 E3.17973
G1 X111.776 Y107.287 E3.19168
G1 X112.252 Y107.65 E3.21159
G0 F6000 X112.023 Y107.979
G1 F1200 X112.396 Y108.467 E3.23202
G1 X112.524 Y108.689 E3.24055
G1 X112.711 Y109.137 E3.25669
G1 X112.78 Y109.396 E3.26561
G1 X112.85 Y110 E3.28583
G1 X112.764 Y110.736 E3.31048
G1 X112.524 Y111.311 E3.3312
G1 X112.396 Y111.533 E3.33972
G1 X112.021 Y112.023 E3.36025
G1 X111.533 Y112.396 E3.38068
G1 X111.311 Y112.524 E3.3892
G1 X110.739 Y112.763 E3.40982
G1 X110.001 Y112.857 E3.43456
G1 X109.396 Y112.78 E3.45485
G1 X109.137 Y112.711 E3.46376
G1 X108.689 Y112.524 E3.47991
G1 X108.467 Y112.396 E3.48843
G1 X107.978 Y112.022 E3.50891
G1 X107.604 Y111.533 E3.52938
G1 X107.476 Y111.311 E3.53791
G1 X107.237 Y110.739 E3.55852
G1 X107.143 Y110.001 E3.58327
G1 X107.22 Y109.396 E3.60355
G1 X107.289 Y109.137 E3.61247
G1 X107.476 Y108.689 E3.62861
G1 X107.604 Y108.467 E3.63714
G1 X107.978 Y107.978 E3.65761
G1 X108.467 Y107.604 E3.67809
G1 X108.689 Y107.476 E3.68661
G1 X109.261 Y107.237 E3.70723
G1 X109.999 Y107.143 E3.73198
G1 X110.604 Y107.22 E3.75226
G1 X110.863 Y107.289 E3.76118
G1 X111.311 Y107.476 E3.77732
G1 X111.533 Y107.604 E3.78584
G1 X112.023 Y107.979 E3.80637
G0 F6000 X111.733 Y108.267
G1 F1200 X112.124 Y108.769 E3.82753
G1 X112.375 Y109.37 E3.84919
G1 X112.45 Y110 E3.8703
G1 X112.374 Y110.633 E3.8915
G1 X112.124 Y111.231 E3.91306
G1 X111.733 Y111.733 E3.93422
G1 X111.23 Y112.124 E3.95541
G1 X110.634 Y112.373 E3.97689
G1 X110 Y112.455 E3.99816
G1 X109.368 Y112.374 E4.01935
G1 X108.77 Y112.124 E4.04091
G1 X108.267 Y111.733 E4.0621
G1 X107.876 Y111.23 E4.08329
G1 X107.627 Y110.634 E4.10477
G1 X107.545 Y110 E4.12603
G1 X107.626 Y109.368 E4.14723
G1 X107.876 Y108.77 E4.16878
G1 X108.267 Y108.267 E4.18997
G1 X108.77 Y107.876 E4.21116
G1 X109.366 Y107.627 E4.23265
G1 X110 Y107.545 E4.25391
G1 X110.632 Y107.626 E4.2751
G1 X111.23 Y107.876 E4.29666
G1 X111.733 Y108.267 E4.31785
G1 F1500 E-2.18215
G0 F6000 X111.918 Y108.026
G0 X113.274 Y106.726
G0 X117.2 Y106.726
G0 X119.13 Y100.87
G0 X119.4 Y100.6
G1 F1500 E4.31785
G1 F1200 X100.601 Y100.601 E4.94311
G1 X100.601 Y119.399 E5.56833
G1 X119.4 Y119.4 E6.19359
G1 X119.4 Y100.6 E6.81888
G0 F6000 X119 Y101
G1 F1200 X101.001 Y101.001 E7.41753
G1 X101.001 Y118.999 E8.01614
G1 X119 Y119 E8.61479
G1 X119 Y101 E9.21347
G0 F6000 X118.6 Y101.4
G1 F1200 X101.401 Y101.401 E9.78552
G1 X101.401 Y118.599 E10.35752
G1 X118.6 Y118.6 E10.92956
G1 X118.6 Y101.4 E11.50164
G0 F6000 X118.2 Y101.8
G1 F1200 X101.801 Y101.801 E12.04707
G1 X101.801 Y118.199 E12.59247
G1 X118.2 Y118.2 E13.1379
G1 X118.2 Y101.8 E13.68337
G0 F6000 X117.8 Y102.2
G1 F1200 X102.201 Y102.201 E14.2022
G1 X102.201 Y117.799 E14.72099
G1 X117.8 Y117.8 E15.23981
G1 X117.8 Y102.2 E15.75867
G0 F6000 X117.4 Y102.6
G1 F1200 X102.601 Y102.601 E16.25089
G1 X102.601 Y117.399 E16.74307
G1 X117.4 Y117.4 E17.23529
G1 X117.4 Y102.6 E17.72754
G1 F1500 E11.22754
G0 F6000 X119.53 Y100.47
G0 X119.8 Y100.2
;TYPE:WALL-OUTER
G1 F1500 E17.72754
G1 F1200 X100.201 Y100.201 E18.3794
G1 X100.201 Y119.799 E19.03123
G1 X119.8 Y119.8 E19.6831
G1 X119.8 Y100.2 E20.335
G1 F1500 E13.835
G0 F6000 X119.53 Y100.47
G0 X111.877 Y102.8
G0 X111.145 Y105.537
G0 X111.877 Y107.994
G0 X111.45 Y108.55
G1 F1500 E20.335
G1 F1200 X111.786 Y108.997 E20.3536
G1 X111.984 Y109.471 E20.37068
G1 X112.05 Y110 E20.38841
G1 X111.986 Y110.512 E20.40558
G1 X111.786 Y111.003 E20.42321
G1 X111.45 Y111.45 E20.44181
G1 X111.003 Y111.786 E20.46041
G1 X110.512 Y111.986 E20.47804
G1 X109.974 Y112.048 E20.49605
G1 X109.47 Y111.984 E20.51295
G1 X108.997 Y111.786 E20.53001
G1 X108.55 Y111.45 E20.54861
G1 X108.214 Y111.003 E20.5672
G1 X108.014 Y110.512 E20.58484
G1 X107.952 Y109.974 E20.60285
G1 X108.016 Y109.47 E20.61975
G1 X108.214 Y108.997 E20.6368
G1 X108.55 Y108.55 E20.6554
G1 X108.997 Y108.214 E20.674
G1 X109.488 Y108.014 E20.69163
G1 X110.026 Y107.952 E20.70965
G1 X110.53 Y108.016 E20.72654
G1 X111.003 Y108.214 E20.7436
G1 X111.45 Y108.55 E20.7622
G1 F1500 E14.2622
G0 F6000 X111.877 Y107.994
G0 X113.274 Y106.726
G0 X113.274 Y102.8
G0 X117.04 Y102.7
G0 X117.04 Y102.96
;TYPE:SKIN
G1 F1500 E20.7622
G1 F1200 X117.04 Y117.04 E21.2305
G1 X102.962 Y117.039 E21.69874
G1 X102.962 Y102.961 E22.16697
G1 X117.04 Y102.96 E22.63521
G1 F1500 E16.13521
G0 F6000 X117.04 Y102.7
G0 X113.217 Y102.8
G0 X112.616 Y106.191
G0 X113.217 Y106.782
G0 X113.409 Y106.604
G1 F1500 E22.63521
G1 F1200 X113.108 Y106.337 E22.64859
G1 X112.733 Y106.052 E22.66426
G1 X112.084 Y105.675 E22.68922
G1 X111.625 Y105.481 E22.7058
G1 X110.875 Y105.28 E22.73162
G1 X110.377 Y105.214 E22.74833
G1 X110.013 Y105.191 E22.76046
G1 X109.638 Y105.213 E22.77295
G1 X108.992 Y105.299 E22.79463
G1 X108.398 Y105.472 E22.81521
G1 X107.939 Y105.664 E22.83176
G1 X107.288 Y106.038 E22.85673
G1 X106.892 Y106.337 E22.87323
G1 X106.6 Y106.595 E22.88619
G1 X106.348 Y106.88 E22.89884
G1 X106.049 Y107.272 E22.91524
G1 X105.675 Y107.916 E22.94001
G1 X105.481 Y108.375 E22.95658
G1 X105.279 Y109.128 E22.98252
G1 X105.214 Y109.622 E22.99909
G1 X105.191 Y109.989 E23.01132
G1 X105.213 Y110.362 E23.02375
G1 X105.299 Y111.008 E23.04542
G1 X105.472 Y111.602 E23.066
G1 X105.664 Y112.061 E23.08255
G1 X106.035 Y112.707 E23.10732
G1 X106.339 Y113.109 E23.12409
G1 X106.591 Y113.396 E23.13679
G1 X106.889 Y113.661 E23.15005
G1 X107.266 Y113.948 E23.16581
G1 X107.919 Y114.325 E23.19089
G1 X108.4 Y114.527 E23.20824
G1 X109.125 Y114.72 E23.2332
G1 X109.623 Y114.786 E23.2499
G1 X109.987 Y114.809 E23.26204
G1 X110.362 Y114.787 E23.27453
G1 X111.008 Y114.701 E23.29621
G1 X111.602 Y114.528 E23.31678
G1 X112.06 Y114.336 E23.3333
G1 X112.734 Y113.948 E23.35917
G1 X113.111 Y113.661 E23.37493
G1 X113.4 Y113.405 E23.38777
G1 X113.652 Y113.12 E23.40042
G1 X113.951 Y112.728 E23.41682
G1 X114.326 Y112.078 E23.44178
G1 X114.518 Y111.626 E23.45811
G1 X114.706 Y110.987 E23.48026
G1 X114.786 Y110.375 E23.50079
G1 X114.81 Y110.011 E23.51293
G1 X114.787 Y109.634 E23.52549
G1 X114.724 Y109.148 E23.54179
G1 X114.527 Y108.401 E23.56748
G1 X114.336 Y107.941 E23.58405
G1 X113.948 Y107.266 E23.60994
G1 X113.669 Y106.9 E23.62525
G1 X113.409 Y106.604 E23.63835
G1 F1500 E17.13835
G0 F6000 X113.217 Y106.782
G0 X117.2 Y106.773
G0 X117.3 Y103.263
G0 X116.839 Y103.263
G1 F1500 E23.63835
G1 F1200 X116.736 Y103.16 E23.6432
G0 F6000 X116.171 Y103.16
G1 F1200 X116.839 Y103.828 E23.67462
G0 F6000 X116.839 Y104.394
G1 F1200 X115.605 Y103.16 E23.73266
G0 F6000 X115.039 Y103.16
G1 F1200 X116.839 Y104.96 E23.81733
G0 F6000 X116.839 Y105.525
G1 F1200 X114.474 Y103.16 E23.92857
G0 F6000 X113.908 Y103.16
G1 F1200 X116.839 Y106.091 E24.06644
G0 F6000 X116.839 Y106.657
G1 F1200 X113.342 Y103.16 E24.23093
G0 F6000 X112.777 Y103.16
G1 F1200 X116.839 Y107.222 E24.42199
G0 F6000 X116.839 Y107.788
G1 F1200 X112.211 Y103.16 E24.63968
G0 F6000 X111.645 Y103.16
G1 F1200 X116.839 Y108.354 E24.88399
G0 F6000 X116.839 Y108.919
G1 F1200 X111.08 Y103.16 E25.15487
G0 F6000 X110.514 Y103.16
G1 F1200 X116.839 Y109.485 E25.45238
G0 F6000 X116.839 Y110.051
G1 F1200 X114.344 Y107.555 E25.56976
G0 F6000 X113.947 Y107.784
G0 X114.327 Y108.661
G0 X114.768 Y108.545
G1 F1200 X116.839 Y110.616 E25.66717
G0 F6000 X116.839 Y111.182
G1 F1200 X114.942 Y109.285 E25.7564
G0 F6000 X115.002 Y109.911
G1 F1200 X116.839 Y111.748 E25.84281
G0 F6000 X116.839 Y112.314
G1 F1200 X114.976 Y110.45 E25.93046
G0 F6000 X114.91 Y110.95
G1 F1200 X116.839 Y112.879 E26.0212
G0 F6000 X116.839 Y113.445
G1 F1200 X114.791 Y111.396 E26.11755
G0 F6000 X114.65 Y111.821
G1 F1200 X116.839 Y114.011 E26.22054
G0 F6000 X116.839 Y114.576
G1 F1200 X114.476 Y112.213 E26.33169
G0 F6000 X114.269 Y112.572
G1 F1200 X116.839 Y115.142 E26.45257
G0 F6000 X116.839 Y115.708
G1 F1200 X114.053 Y112.922 E26.58362
G0 F6000 X113.808 Y113.242
G1 F1200 X116.839 Y116.273 E26.72619
G0 F6000 X116.839 Y116.839
G1 F1200 X113.542 Y113.542 E26.88127
G0 F6000 X113.243 Y113.809
G1 F1200 X116.273 Y116.838 E27.02377
G0 F6000 X115.707 Y116.838
G1 F1200 X112.923 Y114.054 E27.15472
G0 F6000 X112.572 Y114.269
G1 F1200 X115.141 Y116.838 E27.27556
G0 F6000 X114.576 Y116.838
G1 F1200 X112.213 Y114.476 E27.38668
G0 F6000 X111.822 Y114.651
G1 F1200 X114.01 Y116.838 E27.48957
G0 F6000 X113.444 Y116.838
G1 F1200 X111.399 Y114.793 E27.58576
G0 F6000 X110.951 Y114.911
G1 F1200 X112.878 Y116.838 E27.6764
G0 F6000 X112.313 Y116.838
G1 F1200 X110.45 Y114.976 E27.76401
G0 F6000 X109.913 Y115.004
G1 F1200 X111.747 Y116.838 E27.85028
G0 F6000 X111.181 Y116.838
G1 F1200 X109.283 Y114.94 E27.93955
G0 F6000 X108.55 Y114.772
G1 F1200 X110.616 Y116.838 E28.03673
G0 F6000 X110.05 Y116.838
G1 F1200 X107.556 Y114.344 E28.15404
G1 F1500 E21.65404
G0 F6000 X107.787 Y113.949
G0 X108.45 Y114.355
G0 X108.448 Y117.219
G0 X107.786 Y117.299
G0 X107.787 Y116.838
G1 F1500 E28.15404
G1 F1200 X103.161 Y112.212 E28.37163
G0 F6000 X103.161 Y112.777
